status/16/desktoptrusted.svg

<svg xmlns="http://www.w3.org/2000/svg" version="1.1" viewBox="0 0 16 16">
 <path style="opacity:0.4;fill:#ececec" d="M 7,11.996 5.091,13.269 C 4.001,13.996 3.91,13.996 5.001,13.996 H 11.001 C 12.092,13.996 12.001,13.996 10.909,13.269 L 9,11.996 V 10.496 H 7 Z"/>
 <path style="opacity:0.4;fill:#ececec" d="M 3,1.9958 C 2.194,1.9958 2,2.1908 2,2.9958 V 9.9958 C 2,10.802 2.194,10.996 3,10.996 H 13 C 13.806,10.996 14,10.801 14,9.9958 V 2.9958 C 14,2.1898 13.806,1.9958 13,1.9958 Z M 3,2.9958 H 13 V 9.9958 H 3 Z"/>
</svg>

<svg viewBox="0 0 16 16" xmlns="http://www.w3.org/2000/svg"><path d="m7 11.9958-1.909 1.273c-1.09.727-1.181.727-.09.727h6c1.091 0 1 0-.092-.727l-1.909-1.273v-1.5h-2z" fill="#ececec" opacity=".4"/><path d="m3 1.9958c-.806 0-1 .195-1 1v7c0 .806.194 1 1 1h10c .806 0 1-.195 1-1v-7c0-.806-.194-1-1-1zm0 1h10v7h-10z" fill="#ececec" opacity=".4"/></svg>
